Kaze-dark-colors/64x64/places/folder-downloads.svg

<?xml version="1.0" encoding="UTF-8" standalone="no"?>
<svg
   width="128"
   height="128"
   viewBox="0 0 128 128"
   fill="none"
   version="1.1"
   id="svg7"
   sodipodi:docname="folder-downloads.svg"
   inkscape:version="1.4 (e7c3feb100, 2024-10-09)"
   xmlns:inkscape="http://www.inkscape.org/namespaces/inkscape"
   xmlns:sodipodi="http://sodipodi.sourceforge.net/DTD/sodipodi-0.dtd"
   xmlns="http://www.w3.org/2000/svg"
   xmlns:svg="http://www.w3.org/2000/svg">
  <sodipodi:namedview
     id="namedview7"
     pagecolor="#ffffff"
     bordercolor="#000000"
     borderopacity="0.25"
     inkscape:showpageshadow="2"
     inkscape:pageopacity="0.0"
     inkscape:pagecheckerboard="0"
     inkscape:deskcolor="#d1d1d1"
     inkscape:zoom="5.8046875"
     inkscape:cx="63.913863"
     inkscape:cy="64"
     inkscape:window-width="1920"
     inkscape:window-height="952"
     inkscape:window-x="0"
     inkscape:window-y="0"
     inkscape:window-maximized="1"
     inkscape:current-layer="svg7" />
  <defs
     id="defs1">
    <style
       id="current-color-scheme"
       type="text/css">
        .ColorScheme-Text { color:#e6f0f5; }
        .ColorScheme-Highlight { color:#2179cb; }
        .ColorScheme-Background { color:#e4e4e4; }
    </style>
  </defs>
  <path
     style="fill:currentColor;opacity:0.5"
     class="ColorScheme-Highlight"
     d="M20 20V88C20 91.3137 22.6863 94 26 94H102C105.314 94 108 91.3137 108 88V26.4C108 23.0863 105.314 20.4 102 20.4H63.7061C62.0242 20.4 60.4196 19.6941 59.2832 18.4544L56.9835 15.9457C55.8471 14.7059 54.2424 14 52.5606 14L26 14C22.6863 14 20 16.6863 20 20Z"
     id="path1" />
  <path
     style="fill:currentColor"
     class="ColorScheme-Background"
     d="M14 50.4C14 45.9817 17.5817 42.4 22 42.4H48.7224C50.9612 42.4 53.0975 41.4619 54.6125 39.8136L55.7405 38.5864C57.2554 36.9381 59.3918 36 61.6305 36H106C110.418 36 114 39.5817 114 44V108C114 112.418 110.418 116 106 116H22C17.5817 116 14 112.418 14 108L14 50.4Z"
     fill-opacity="0.15"
     id="path2" />
  <path
     d="M14 48.4C14 43.9817 17.5817 40.4 22 40.4H48.7224C50.9612 40.4 53.0975 39.4619 54.6125 37.8136L55.7405 36.5864C57.2554 34.9381 59.3918 34 61.6305 34H106C110.418 34 114 37.5817 114 42V106C114 110.418 110.418 114 106 114H22C17.5817 114 14 110.418 14 106L14 48.4Z"
     fill="url(#paint0_linear_817_172)"
     id="path3" />
  <path
     id="rect4"
     style="fill:#ffffff;fill-opacity:1"
     d="m 50,90 h 28 c 1.108,0 2,0.892 2,2 0,1.108 -0.892,2 -2,2 H 50 c -1.108,0 -2,-0.892 -2,-2 0,-1.108 0.892,-2 2,-2 z M 62.5858,90.5858 51.4142,79.4142 C 50.1543,78.1543 51.0466,76 52.8284,76 h 3.4573 c 1.1046,0 2,-0.8954 2,-2 V 56 c 0,-2.2091 1.7909,-4 4,-4 h 3.4286 c 2.2091,0 4,1.7909 4,4 v 18 c 0,1.1046 0.8954,2 2,2 h 3.4573 c 1.7818,0 2.6741,2.1543 1.4142,3.4142 L 65.4142,90.5858 c -0.781,0.781 -2.0474,0.781 -2.8284,0 z" />
  <defs
     id="defs7">
    <linearGradient
       id="paint0_linear_817_172"
       x1="58.1176"
       y1="37.8209"
       x2="63.072"
       y2="110.28"
       gradientUnits="userSpaceOnUse">
      <stop
         style="stop-color:currentColor"
         class="ColorScheme-Highlight"
         id="stop4" />
      <stop
         offset="1"
         style="stop-color:currentColor"
         class="ColorScheme-Highlight"
         id="stop5" />
    </linearGradient>
    <linearGradient
       id="paint1_linear_817_172"
       x1="64"
       y1="52"
       x2="64"
       y2="92"
       gradientUnits="userSpaceOnUse">
      <stop
         stop-color="#EFF3F5"
         id="stop6" />
      <stop
         offset="1"
         stop-color="#B4D8F1"
         id="stop7" />
    </linearGradient>
  </defs>
</svg>

<svg width="128" height="128" viewBox="0 0 128 128" fill="none" xmlns="http://www.w3.org/2000/svg">
<defs>
    <style id="current-color-scheme" type="text/css">
        .ColorScheme-Text { color:#e6f0f5; }
        .ColorScheme-Highlight { color:#2179cb; }
        .ColorScheme-Background { color:#e4e4e4; }
    </style>
</defs>


<path style="fill:currentColor;opacity:0.5" class="ColorScheme-Highlight" d="M20 20V88C20 91.3137 22.6863 94 26 94H102C105.314 94 108 91.3137 108 88V26.4C108 23.0863 105.314 20.4 102 20.4H63.7061C62.0242 20.4 60.4196 19.6941 59.2832 18.4544L56.9835 15.9457C55.8471 14.7059 54.2424 14 52.5606 14L26 14C22.6863 14 20 16.6863 20 20Z" />
<path style="fill:currentColor" class="ColorScheme-Background" d="M14 50.4C14 45.9817 17.5817 42.4 22 42.4H48.7224C50.9612 42.4 53.0975 41.4619 54.6125 39.8136L55.7405 38.5864C57.2554 36.9381 59.3918 36 61.6305 36H106C110.418 36 114 39.5817 114 44V108C114 112.418 110.418 116 106 116H22C17.5817 116 14 112.418 14 108L14 50.4Z" fill-opacity="0.15"/>
<path d="M14 48.4C14 43.9817 17.5817 40.4 22 40.4H48.7224C50.9612 40.4 53.0975 39.4619 54.6125 37.8136L55.7405 36.5864C57.2554 34.9381 59.3918 34 61.6305 34H106C110.418 34 114 37.5817 114 42V106C114 110.418 110.418 114 106 114H22C17.5817 114 14 110.418 14 106L14 48.4Z" fill="url(#paint0_linear_817_172)"/>
<path d="M62.5858 90.5858L51.4142 79.4142C50.1543 78.1543 51.0466 76 52.8284 76H56.2857C57.3903 76 58.2857 75.1046 58.2857 74V56C58.2857 53.7909 60.0766 52 62.2857 52H65.7143C67.9234 52 69.7143 53.7909 69.7143 56V74C69.7143 75.1046 70.6097 76 71.7143 76H75.1716C76.9534 76 77.8457 78.1543 76.5858 79.4142L65.4142 90.5858C64.6332 91.3668 63.3668 91.3668 62.5858 90.5858Z" fill="url(#paint1_linear_817_172)"/>
<rect x="48" y="90" width="32" height="4" rx="2" fill="#AFD0E7"/>
<defs>
<linearGradient id="paint0_linear_817_172" x1="58.1176" y1="37.8209" x2="63.072" y2="110.28" gradientUnits="userSpaceOnUse">
<stop style="stop-color:currentColor" class="ColorScheme-Highlight"/>
<stop offset="1" style="stop-color:currentColor" class="ColorScheme-Highlight"/>
</linearGradient>
<linearGradient id="paint1_linear_817_172" x1="64" y1="52" x2="64" y2="92" gradientUnits="userSpaceOnUse">
<stop stop-color="#EFF3F5"/>
<stop offset="1" stop-color="#B4D8F1"/>
</linearGradient>
</defs>
</svg>
